svg/fridge_alert.svg

<?xml version="1.0" encoding="UTF-8"?><!DOCTYPE svg PUBLIC "-//W3C//DTD SVG 1.1//EN" "http://www.w3.org/Graphics/SVG/1.1/DTD/svg11.dtd"><svg xmlns="http://www.w3.org/2000/svg" xmlns:xlink="http://www.w3.org/1999/xlink" version="1.1" id="mdi-fridge-alert" width="24" height="24" viewBox="0 0 24 24"><path d="M5 2H15C16.11 2 17 2.9 17 4V9H3V4C3 2.9 3.9 2 5 2M17 19C17 20.11 16.11 21 15 21V22H13V21H7V22H5V21C3.9 21 3 20.11 3 19V10H17V19M6 5V7H8V5H6M6 12V15H8V12H6M19 15H21V17H19V15M19 7H21V13H19V7Z" /></svg>

<svg xmlns="http://www.w3.org/2000/svg" viewBox="0 0 24 24"><path d="M5 2h10a2 2 0 0 1 2 2v5H3V4c0-1.1.9-2 2-2m12 17c0 1.11-.89 2-2 2v1h-2v-1H7v1H5v-1a2 2 0 0 1-2-2v-9h14zM6 5v2h2V5zm0 7v3h2v-3zm13 3h2v2h-2zm0-8h2v6h-2z"/></svg>
